
hush

d1
  $ sometimes (rev)
  $ sometimesBy 0.4 (stutWith 2 (0.125) (stutWith 8 (0.0625) (|* gain 0.9).(|* hpf 1.2)))
  $ degradeBy 0.2
  $ every 4 (# hpf 2400).(# speed (rand + 1))
  $ fast 3
  $ s "[pec|toml|kcks]"
  # n (irand 32)
  # speed (range 1 3 $ slow 3 sine)
  # gain 1.1
  # room 0.6
  # size 0.2
  # delay 0.2
  # distort 0.1
  # hpf 300
  # lpf 20000
  # cut (choose [10, 100, 600])
  # cps (140/240)
  # gain 0.9
  # orbit 1
