

d1 $ stack[
    off 0.5 (#n 10)
        $ juxBy 0.5 (# speed "[0.5 0.2]* 1.2 [1 -1]")
        $ s "[<msg mt>(7, 12)]/2"
        # speed "[[0.3,0.8][0.8,1]]/4"
        # cut 1
        # hpf 300
        # gain 1.1
    , jux rev
        $ off 0.5 (#n 2)
        $ s "[909(7,12)]/4"
        # gain 1
        # lpf 600
        # hpf 30
        # speed "<1 1.5>"
]
# cps 0.7

hush
